icons/template.svg

<svg width="14" height="14" xmlns="http://www.w3.org/2000/svg"><path d="M6,12 L11,12 C11.5522847,12 12,11.5522847 12,11 L12,6 L6,6 L6,12 Z M4,12 L4,6 L2,6 L2,11 C2,11.5522847 2.44771525,12 3,12 L4,12 Z M12,3 C12,2.44771525 11.5522847,2 11,2 L3,2 C2.44771525,2 2,2.44771525 2,3 L2,4 L12,4 L12,3 Z M3,0 L11,0 C12.6568542,0 14,1.34314575 14,3 L14,11 C14,12.6568542 12.6568542,14 11,14 L3,14 C1.34314575,14 0,12.6568542 0,11 L0,3 C0,1.34314575 1.34314575,0 3,0 Z"/></svg>

<svg width="14" height="14" xmlns="http://www.w3.org/2000/svg" fill="currentColor"><path d="M6 12h5a1 1 0 0 0 1-1V6H6v6Zm-2 0V6H2v5a1 1 0 0 0 1 1h1Zm8-9a1 1 0 0 0-1-1H3a1 1 0 0 0-1 1v1h10V3ZM3 0h8a3 3 0 0 1 3 3v8a3 3 0 0 1-3 3H3a3 3 0 0 1-3-3V3a3 3 0 0 1 3-3Z"/></svg>
